cssgg/extension-alt.svg

<svg viewBox="0 0 24 24" xmlns="http://www.w3.org/2000/svg"><path fill-rule="evenodd" d="M5 5v14h8v-6h6V5H5Zm6 2H7v4h4V7Zm0 6H7v4h4v-4Zm2-2h4V7h-4v4Z"/></svg>

<svg
  width="24"
  height="24"
  viewBox="0 0 24 24"
  fill="none"
  xmlns="http://www.w3.org/2000/svg"
>
  <path
    fill-rule="evenodd"
    clip-rule="evenodd"
    d="M5 5V19H13V13H19V5H5ZM11 7H7V11H11V7ZM11 13H7V17H11V13ZM13 11H17V7H13V11Z"
    fill="currentColor"
  />
</svg>
